lib/flags/s/FM.svg

<svg xmlns="http://www.w3.org/2000/svg" fill="none" viewBox="0 0 16 12"><mask id="FM_svg__a" width="16" height="12" x="0" y="0" mask-type="alpha" maskUnits="userSpaceOnUse"><path fill="#fff" d="M0 0H16V12H0z"/></mask><g mask="url(#FM_svg__a)"><path fill="#63B3E1" fill-rule="evenodd" d="M0 0V12H16V0H0Z" clip-rule="evenodd"/><mask id="FM_svg__b" width="16" height="12" x="0" y="0" mask-type="alpha" maskUnits="userSpaceOnUse"><path fill="#fff" fill-rule="evenodd" d="M0 0V12H16V0H0Z" clip-rule="evenodd"/></mask><g fill="#F7FCFF" fill-rule="evenodd" clip-rule="evenodd" mask="url(#FM_svg__b)"><path d="M8 3.65002 7.11832 4.11355 7.28671 3.13179 6.57342 2.4365 7.55916 2.29326 8 1.40002 8.44084 2.29326 9.42658 2.4365 8.71329 3.13179 8.88168 4.11355 8 3.65002zM7.99999 9.65002 7.11832 10.1135 7.2867 9.13179 6.57341 8.4365 7.55916 8.29326 7.99999 7.40002 8.44083 8.29326 9.42658 8.4365 8.71329 9.13179 8.88167 10.1135 7.99999 9.65002zM4.90002 6.75 4.01835 7.21353 4.18673 6.23176 3.47344 5.53647 4.45919 5.39324 4.90002 4.5 5.34086 5.39324 6.32661 5.53647 5.61332 6.23176 5.7817 7.21353 4.90002 6.75zM11 6.75 10.1183 7.21353 10.2867 6.23176 9.57342 5.53647 10.5592 5.39324 11 4.5 11.4408 5.39324 12.4266 5.53647 11.7133 6.23176 11.8817 7.21353 11 6.75z"/></g></g></svg>

<svg xmlns="http://www.w3.org/2000/svg" fill="none" viewBox="0 0 16 12"><mask id="FM_svg__a" width="16" height="12" x="0" y="0" maskUnits="userSpaceOnUse"><path fill="#fff" d="M0 0h16v12H0z"/></mask><g mask="url(#FM_svg__a)"><path fill="#63B3E1" fill-rule="evenodd" d="M0 0v12h16V0H0z" clip-rule="evenodd"/><mask id="FM_svg__b" width="16" height="12" x="0" y="0" maskUnits="userSpaceOnUse"><path fill="#fff" fill-rule="evenodd" d="M0 0v12h16V0H0z" clip-rule="evenodd"/></mask><g fill="#F7FCFF" fill-rule="evenodd" clip-rule="evenodd" mask="url(#FM_svg__b)"><path d="M8 3.65l-.882.464.169-.982-.714-.696.986-.143L8 1.4l.44.893.987.143-.714.696.169.982L8 3.65zm0 6l-.882.463.169-.981-.714-.696.986-.143L8 7.4l.442.893.986.143-.714.696.169.982L8 9.65zm-3.1-2.9l-.882.464.169-.982-.714-.696.986-.143L4.9 4.5l.44.893.987.143-.714.696.169.982L4.9 6.75zm6.1 0l-.882.464.169-.982-.714-.696.986-.143L11 4.5l.44.893.987.143-.714.696.169.982L11 6.75z"/></g></g></svg>
